X:41
T:Premier Divertissement - Jupiter modrment (version de travail)
C:Forqueray
O:France
Z:<anamnese@caramail.com> -- http://anamnese.fr.st
S:Eric Forgeot <eforgeot@yahoo.fr> abcusers 2003-2-9
M:C
L:1/8
Q:1/47
K:Dm
GFE |: DFEF AFED | ^CA,^CE AGFE | FDFA dfed | ^cd^cB ABAG |
FAdf  agfe | GBdg bagf | ed^cB  Aeae | fgfe dGFE |
DFEF AFED | ^CA,^CE AGFE | FDFA dfed | ^cd^cB ABAG |
FAdf  agfe | GBdg bagf | ed^cB  AGFE | FGFE DGFE |
